src/assets/party.svg

<?xml version="1.0" encoding="UTF-8"?>
<svg version="1.1" viewBox="0 0 400 400" xmlns="http://www.w3.org/2000/svg">
<path d="m118.75 2.432c-20.581 2.641-23.476 3.512-26.41 7.942l-2.106 3.181-0.265 18.894-0.265 18.895-5.203-0.344c-16.181-1.069-26.068 17.442-16.272 30.463 8.323 11.063 25.977 9.647 32.173-2.579 1.897-3.744 1.942-4.235 1.942-21.436 0-9.682 0.263-17.606 0.586-17.609 0.322-3e-3 8.847-1.055 18.945-2.339s18.799-2.336 19.336-2.339c0.718-3e-3 0.977 2.115 0.977 8.003v8.008h-6.507c-24.517 0-26.323 35.72-1.905 37.68 6.179 0.496 11.791-1.668 15.783-6.086 4.866-5.387 5.129-7.52 5.129-41.727 0-44.841 1.35-43.391-35.938-38.607m181.25-0.038c-20.606 2.689-23.482 3.558-26.41 7.979l-2.106 3.181-0.255 18.909-0.255 18.91-4.851-0.389c-17.128-1.375-27.198 19.035-15.682 31.782 8.408 9.306 23.834 7.964 30.398-2.645l2.364-3.821 0.236-18.228c0.129-10.026 0.481-18.23 0.781-18.233s8.807-1.055 18.905-2.339 18.799-2.336 19.336-2.339c0.719-3e-3 0.977 2.139 0.977 8.124v8.129l-4.493-0.403c-12.311-1.106-21.289 6.869-21.289 18.911 0 22.054 30.975 26.511 37.17 5.347 0.983-3.356 1.141-9.21 0.95-35.156-0.323-43.933 1.016-42.521-35.776-37.719m-157.81 15.022v4.917l-17.383 2.156c-9.561 1.186-18.526 2.353-19.922 2.592l-2.539 0.437v-4.799c0-5.88-1.612-5.211 18.997-7.889 23.156-3.01 20.847-3.296 20.847 2.586m181.25 0v4.917l-17.383 2.156c-9.561 1.186-18.526 2.353-19.922 2.592l-2.539 0.437v-5.165c0-3.592 0.297-5.176 0.976-5.202 0.537-0.019 8.535-1.034 17.774-2.254 23.418-3.093 21.094-3.37 21.094 2.519m-294.28 8.354c-2.461 1.015-3.372 3.221-3.372 8.163v4.348h-4.723c-5.626 0-8.558 2.141-8.558 6.25s2.932 6.25 8.558 6.25h4.723v4.688c0 11.222 11.539 11.194 12.351-0.03l0.337-4.658h4.239c5.274 0 8.073-2.27 8.073-6.548 0-3.891-2.844-5.952-8.214-5.952h-4.098l-0.341-4.718c-0.472-6.524-4.203-9.763-8.975-7.793m336.49 0.215c-2.626 1.354-3.896 4.143-3.91 8.585l-0.011 3.711h-4.192c-5.469 0-8.308 2.034-8.308 5.952 0 4.278 2.799 6.548 8.073 6.548h4.239l0.337 4.658c0.812 11.224 12.351 11.252 12.351 0.03v-4.688h4.723c5.626 0 8.558-2.141 8.558-6.25s-2.932-6.25-8.558-6.25h-4.723v-4.601c0-6.788-3.774-10.173-8.579-7.695m-277.71 39.214c5.274 5.273-0.965 14.057-7.501 10.559-0.826-0.442-2.061-1.885-2.744-3.205-3.243-6.272 5.239-12.36 10.245-7.354m51.64-0.066c1.639 1.41 2.153 2.552 2.153 4.789 0 5.751-6.537 8.625-10.746 4.725-6.233-5.777 2.148-15.057 8.593-9.514m129.46 0.064c6.233 5.777-2.148 15.057-8.593 9.514-3.017-2.595-3.017-6.983 0-9.578 2.777-2.388 5.972-2.364 8.593 0.064m50.548-1.111c0.826 0.442 2.061 1.884 2.744 3.205 3.243 6.271-5.239 12.36-10.245 7.354-5.274-5.274 0.965-14.057 7.501-10.559m29.386 26.98c-9.747 3.113-11.888 7.917-14.948 33.543-2.765 23.158-1.853 21.619-15.216 25.69-7.69 2.343-7.665 2.351-5.61-1.678 12.166-23.846-11.8-51.915-37.858-44.34-20.181 5.867-29.786 30.333-18.632 47.46 2.346 3.602 2.36 3.44-0.347 3.981-2.126 0.425-39.515 26.597-44.014 30.809-4.836 4.528-5.305 6.925-5.305 27.132v18.368h-32.812-32.813v-19.474-19.475l16.211-0.252c19.269-0.299 22.576-1.544 27.367-10.296 2.049-3.743 2.463-49.152 0.495-54.305-6.308-16.518-30.154-16.134-35.848 0.577-0.852 2.501-1.194 6.705-1.194 14.693l1e-3 11.189h-6.498-6.498l2.787-5.615c13.42-27.037-15.921-56.043-43.101-42.61-15.764 7.79-22.413 27.302-14.536 42.654l2.858 5.571h-9.221-9.222l2.734-8.399c6.234-19.152-3.698-33.492-20.676-29.851-9.847 2.112-11.551 4.745-20.462 31.609-9.597 28.932-9.709 31.44-1.752 39.363 5.328 5.305 6.754 5.559 31.294 5.559h21.199v19.5 19.5l-34.18 0.227c-44.285 0.293-43.166-0.207-43.161 19.287 4e-3 13.508 1.886 17.194 9.587 18.769l2.519 0.515 0.391 60.653c0.439 68.162-0.089 62.514 6.242 66.822 3.294 2.242 27.97 2.723 30.995 0.604 3.483-2.439 2.886-8.693-0.998-10.463-1.144-0.522-6.401-0.883-12.838-0.883h-10.901v-58.203-58.203h175 175v58.203 58.203h-153.94-153.94l-1.917 1.918c-2.537 2.537-2.587 6.556-0.11 8.883l1.809 1.699h155.89 155.89l2.583-1.758c6.331-4.308 5.803 1.34 6.242-66.822l0.391-60.653 2.519-0.515c7.701-1.575 9.583-5.261 9.587-18.769 5e-3 -18.333-1.093-19.061-28.775-19.061h-19.794l-1.886 2.192c-2.309 2.684-2.397 5.151-0.278 7.845l1.609 2.044 18.509 0.21 18.509 0.209v6.641 6.64h-187.89-187.89v-6.64-6.641l195.51-0.397 0.956 2.308c5.906 14.258 31.215 13.863 34.895-0.544l0.448-1.758h44.716c50.367 0 47.615 0.342 47.615-5.915 0-4.919-2.142-6.107-11.643-6.458l-8.201-0.304v-20.186-20.186l18.555-5.901c25.885-8.233 29.941-10.638 32.2-19.1 1.181-4.423 7.06-52.526 7.041-57.611-0.049-13.065-12.525-21.865-25.241-17.804m10.354 13.3c1.841 1.549 2.404 2.663 2.404 4.757 0 6.195-6.427 53.847-7.486 55.499-1.058 1.652-6.183 3.454-44.272 15.573-6.182 1.967-6.055 1.374-6.055 28.182v23.654h-19.531-19.531v-18.633c0-28.125-1.287-29.619-17.239-20.008-14.047 8.464-14.792 10.034-14.792 31.153 0 19.818-3.152 25.248-10.878 18.747l-2.404-2.023v-21.719c0-25.963-2.862-20.899 21.843-38.639l19.109-13.721h23.182 23.181l12.757-3.929c23.208-7.146 23.277-7.243 26.898-37.478 2.218-18.515 2.767-20.642 5.755-22.266 2.942-1.599 4.349-1.429 7.059 0.851m-241.25 13.441c12.302 6.427 14.497 21.712 4.509 31.405-12.719 12.344-34.319 1.604-32.487-16.153 1.401-13.565 15.986-21.517 27.978-15.252m174.64-0.37c14.329 7.41 14.342 27.64 0.023 35.018-18.607 9.589-36.959-14.387-23.097-30.175 5.492-6.254 16.056-8.471 23.074-4.843m-238.23 12.229c3.902 2.379 3.997 4.53 0.651 14.697-4.168 12.666-2.356 19.73 5.661 22.065 6.096 1.776 91.856 0.647 94.385-1.242 5.031-3.757 5.342-4.774 5.796-18.951 0.509-15.922 2.026-19.193 8.182-17.648 4.869 1.222 5.073 2.272 5.073 26.099v21.663l-4.043 4.043-19.046 0.234c-24.55 0.301-21.775-3.121-22.06 27.213l-0.228 24.192h-19.499-19.499v-23.741c0-22.205-0.097-23.861-1.493-25.586l-1.492-1.845-25.656-0.39c-27.163-0.414-26.961-0.386-28.818-3.978-1.855-3.586 11.722-44.528 15.537-46.855 3.065-1.869 3.438-1.867 6.549 0.03m197.87 89.084v13.281h-3.516-3.515v-10.207c0-5.72 0.365-10.891 0.831-11.761 0.652-1.219 5.044-4.577 6.004-4.591 0.108-2e-3 0.196 5.973 0.196 13.278m-190.49 67.659c-9.874 4.92-10.287 6.654-10.287 43.1v30.34l1.991 3.997c6.88 13.806 26.771 13.769 34.168-0.063 2.446-4.573 2.729-63.732 0.328-68.555-4.891-9.821-16.409-13.698-26.2-8.819m87.369-0.79c-3.538 1.53-7.509 5.363-9.639 9.303-2.653 4.907-2.634 63.86 0.022 68.824 7.032 13.14 25.715 13.995 33.424 1.53l2.365-3.823 0.224-30.922c0.245-33.79 0.148-34.679-4.37-40.048-4.529-5.383-15.319-7.765-22.026-4.864m85.515 0.605c-10.179 4.74-10.622 6.637-10.349 44.307l0.224 30.922 2.365 3.823c7.709 12.465 26.392 11.61 33.424-1.53 2.656-4.964 2.675-63.917 0.022-68.824-5.193-9.606-15.929-13.241-25.686-8.698m86.75-0.428c-3.755 1.764-7.619 5.587-9.534 9.432-2.401 4.823-2.118 63.982 0.328 68.555 6.274 11.732 21.797 13.978 31.014 4.487 5.18-5.334 5.229-5.728 4.979-40.208l-0.224-30.922-2.365-3.823c-4.83-7.809-16.118-11.318-24.198-7.521m-246.16 13.483 2.023 2.403v27.735 27.734l-2.284 2.284c-2.437 2.438-4.587 2.84-7.338 1.375-3.611-1.923-3.609-1.905-3.635-31.744l-0.024-28.356 1.917-1.917c2.824-2.824 6.727-2.621 9.341 0.486m86.043-0.486 1.917 1.917v28.589 28.588l-2.067 1.916c-2.631 2.438-5.818 2.45-8.631 0.031l-2.192-1.885-0.224-28.1-0.223-28.1 2.051-2.437c2.642-3.14 6.532-3.356 9.369-0.519m86.641 0.519 2.051 2.437-0.223 28.1-0.224 28.1-2.192 1.885c-2.813 2.419-6 2.407-8.631-0.031l-2.067-1.916v-28.588-28.589l1.917-1.917c2.837-2.837 6.727-2.621 9.369 0.519m86.015-0.519 1.918 1.917-0.025 28.356c-0.026 29.839-0.024 29.821-3.635 31.744-2.751 1.465-4.901 1.063-7.338-1.375l-2.284-2.284v-27.734-27.735l2.023-2.403c2.614-3.107 6.517-3.31 9.341-0.486" fill="#fdf6ff" fill-rule="evenodd"/>
</svg>

<svg id="svg" xmlns="http://www.w3.org/2000/svg" xmlns:xlink="http://www.w3.org/1999/xlink" width="400" height="400" viewBox="0, 0, 400,400" version="1.1"><g id="svgg"><path id="path0" d="M118.750 2.432 C 98.169 5.073,95.274 5.944,92.340 10.374 L 90.234 13.555 89.969 32.449 L 89.704 51.344 84.501 51.000 C 68.320 49.931,58.433 68.442,68.229 81.463 C 76.552 92.526,94.206 91.110,100.402 78.884 C 102.299 75.140,102.344 74.649,102.344 57.448 C 102.344 47.766,102.607 39.842,102.930 39.839 C 103.252 39.836,111.777 38.784,121.875 37.500 C 131.973 36.216,140.674 35.164,141.211 35.161 C 141.929 35.158,142.188 37.276,142.188 43.164 L 142.188 51.172 135.681 51.172 C 111.164 51.172,109.358 86.892,133.776 88.852 C 139.955 89.348,145.567 87.184,149.559 82.766 C 154.425 77.379,154.688 75.246,154.688 41.039 C 154.688 -3.802,156.038 -2.352,118.750 2.432 M300.000 2.394 C 279.394 5.083,276.518 5.952,273.590 10.373 L 271.484 13.554 271.229 32.463 L 270.974 51.373 266.123 50.984 C 248.995 49.609,238.925 70.019,250.441 82.766 C 258.849 92.072,274.275 90.730,280.839 80.121 L 283.203 76.300 283.439 58.072 C 283.568 48.046,283.920 39.842,284.220 39.839 C 284.520 39.836,293.027 38.784,303.125 37.500 C 313.223 36.216,321.924 35.164,322.461 35.161 C 323.180 35.158,323.438 37.300,323.438 43.285 L 323.438 51.414 318.945 51.011 C 306.634 49.905,297.656 57.880,297.656 69.922 C 297.656 91.976,328.631 96.433,334.826 75.269 C 335.809 71.913,335.967 66.059,335.776 40.113 C 335.453 -3.820,336.792 -2.408,300.000 2.394 M142.188 17.416 L 142.188 22.333 124.805 24.489 C 115.244 25.675,106.279 26.842,104.883 27.081 L 102.344 27.518 102.344 22.719 C 102.344 16.839,100.732 17.508,121.341 14.830 C 144.497 11.820,142.188 11.534,142.188 17.416 M323.438 17.416 L 323.438 22.333 306.055 24.489 C 296.494 25.675,287.529 26.842,286.133 27.081 L 283.594 27.518 283.594 22.353 C 283.594 18.761,283.891 17.177,284.570 17.151 C 285.107 17.132,293.105 16.117,302.344 14.897 C 325.762 11.804,323.438 11.527,323.438 17.416 M29.153 25.770 C 26.692 26.785,25.781 28.991,25.781 33.933 L 25.781 38.281 21.058 38.281 C 15.432 38.281,12.500 40.422,12.500 44.531 C 12.500 48.640,15.432 50.781,21.058 50.781 L 25.781 50.781 25.781 55.469 C 25.781 66.691,37.320 66.663,38.132 55.439 L 38.469 50.781 42.708 50.781 C 47.982 50.781,50.781 48.511,50.781 44.233 C 50.781 40.342,47.937 38.281,42.567 38.281 L 38.469 38.281 38.128 33.563 C 37.656 27.039,33.925 23.800,29.153 25.770 M365.640 25.985 C 363.014 27.339,361.744 30.128,361.730 34.570 L 361.719 38.281 357.527 38.281 C 352.058 38.281,349.219 40.315,349.219 44.233 C 349.219 48.511,352.018 50.781,357.292 50.781 L 361.531 50.781 361.868 55.439 C 362.680 66.663,374.219 66.691,374.219 55.469 L 374.219 50.781 378.942 50.781 C 384.568 50.781,387.500 48.640,387.500 44.531 C 387.500 40.422,384.568 38.281,378.942 38.281 L 374.219 38.281 374.219 33.680 C 374.219 26.892,370.445 23.507,365.640 25.985 M87.926 65.199 C 93.200 70.472,86.961 79.256,80.425 75.758 C 79.599 75.316,78.364 73.873,77.681 72.553 C 74.438 66.281,82.920 60.193,87.926 65.199 M139.566 65.133 C 141.205 66.543,141.719 67.685,141.719 69.922 C 141.719 75.673,135.182 78.547,130.973 74.647 C 124.740 68.870,133.121 59.590,139.566 65.133 M269.027 65.197 C 275.260 70.974,266.879 80.254,260.434 74.711 C 257.417 72.116,257.417 67.728,260.434 65.133 C 263.211 62.745,266.406 62.769,269.027 65.197 M319.575 64.086 C 320.401 64.528,321.636 65.970,322.319 67.291 C 325.562 73.562,317.080 79.651,312.074 74.645 C 306.800 69.371,313.039 60.588,319.575 64.086 M348.961 91.066 C 339.214 94.179,337.073 98.983,334.013 124.609 C 331.248 147.767,332.160 146.228,318.797 150.299 C 311.107 152.642,311.132 152.650,313.187 148.621 C 325.353 124.775,301.387 96.706,275.329 104.281 C 255.148 110.148,245.543 134.614,256.697 151.741 C 259.043 155.343,259.057 155.181,256.350 155.722 C 254.224 156.147,216.835 182.319,212.336 186.531 C 207.500 191.059,207.031 193.456,207.031 213.663 L 207.031 232.031 174.219 232.031 L 141.406 232.031 141.406 212.557 L 141.406 193.082 157.617 192.830 C 176.886 192.531,180.193 191.286,184.984 182.534 C 187.033 178.791,187.447 133.382,185.479 128.229 C 179.171 111.711,155.325 112.095,149.631 128.806 C 148.779 131.307,148.437 135.511,148.437 143.499 L 148.438 154.688 141.940 154.688 L 135.442 154.688 138.229 149.073 C 151.649 122.036,122.308 93.030,95.128 106.463 C 79.364 114.253,72.715 133.765,80.592 149.117 L 83.450 154.688 74.229 154.688 L 65.007 154.688 67.741 146.289 C 73.975 127.137,64.043 112.797,47.065 116.438 C 37.218 118.550,35.514 121.183,26.603 148.047 C 17.006 176.979,16.894 179.487,24.851 187.410 C 30.179 192.715,31.605 192.969,56.145 192.969 L 77.344 192.969 77.344 212.469 L 77.344 231.969 43.164 232.196 C -1.121 232.489,-0.002 231.989,0.003 251.483 C 0.007 264.991,1.889 268.677,9.590 270.252 L 12.109 270.767 12.500 331.420 C 12.939 399.582,12.411 393.934,18.742 398.242 C 22.036 400.484,46.712 400.965,49.737 398.846 C 53.220 396.407,52.623 390.153,48.739 388.383 C 47.595 387.861,42.338 387.500,35.901 387.500 L 25.000 387.500 25.000 329.297 L 25.000 271.094 200.000 271.094 L 375.000 271.094 375.000 329.297 L 375.000 387.500 221.058 387.500 L 67.116 387.500 65.199 389.418 C 62.662 391.955,62.612 395.974,65.089 398.301 L 66.898 400.000 222.786 400.000 L 378.675 400.000 381.258 398.242 C 387.589 393.934,387.061 399.582,387.500 331.420 L 387.891 270.767 390.410 270.252 C 398.111 268.677,399.993 264.991,399.997 251.483 C 400.002 233.150,398.904 232.422,371.222 232.422 L 351.428 232.422 349.542 234.614 C 347.233 237.298,347.145 239.765,349.264 242.459 L 350.873 244.503 369.382 244.713 L 387.891 244.922 387.891 251.563 L 387.891 258.203 200.000 258.203 L 12.109 258.203 12.109 251.563 L 12.109 244.922 109.865 244.724 L 207.620 244.525 208.576 246.833 C 214.482 261.091,239.791 260.696,243.471 246.289 L 243.919 244.531 288.635 244.531 C 339.002 244.531,336.250 244.873,336.250 238.616 C 336.250 233.697,334.108 232.509,324.607 232.158 L 316.406 231.854 316.406 211.668 L 316.406 191.482 334.961 185.581 C 360.846 177.348,364.902 174.943,367.161 166.481 C 368.342 162.058,374.221 113.955,374.202 108.870 C 374.153 95.805,361.677 87.005,348.961 91.066 M359.315 104.366 C 361.156 105.915,361.719 107.029,361.719 109.123 C 361.719 115.318,355.292 162.970,354.233 164.622 C 353.175 166.274,348.050 168.076,309.961 180.195 C 303.779 182.162,303.906 181.569,303.906 208.377 L 303.906 232.031 284.375 232.031 L 264.844 232.031 264.844 213.398 C 264.844 185.273,263.557 183.779,247.605 193.390 C 233.558 201.854,232.813 203.424,232.813 224.543 C 232.813 244.361,229.661 249.791,221.935 243.290 L 219.531 241.267 219.531 219.548 C 219.531 193.585,216.669 198.649,241.374 180.909 L 260.483 167.188 283.665 167.188 L 306.846 167.188 319.603 163.259 C 342.811 156.113,342.880 156.016,346.501 125.781 C 348.719 107.266,349.268 105.139,352.256 103.515 C 355.198 101.916,356.605 102.086,359.315 104.366 M118.061 117.807 C 130.363 124.234,132.558 139.519,122.570 149.212 C 109.851 161.556,88.251 150.816,90.083 133.059 C 91.484 119.494,106.069 111.542,118.061 117.807 M292.697 117.437 C 307.026 124.847,307.039 145.077,292.720 152.455 C 274.113 162.044,255.761 138.068,269.623 122.280 C 275.115 116.026,285.679 113.809,292.697 117.437 M54.471 129.666 C 58.373 132.045,58.468 134.196,55.122 144.363 C 50.954 157.029,52.766 164.093,60.783 166.428 C 66.879 168.204,152.639 167.075,155.168 165.186 C 160.199 161.429,160.510 160.412,160.964 146.235 C 161.473 130.313,162.990 127.042,169.146 128.587 C 174.015 129.809,174.219 130.859,174.219 154.686 L 174.219 176.349 172.197 178.371 L 170.176 180.392 151.130 180.626 C 126.580 180.927,129.355 177.505,129.070 207.839 L 128.842 232.031 109.343 232.031 L 89.844 232.031 89.844 208.290 C 89.844 186.085,89.747 184.429,88.351 182.704 L 86.859 180.859 61.203 180.469 C 34.040 180.055,34.242 180.083,32.385 176.491 C 30.530 172.905,44.107 131.963,47.922 129.636 C 50.987 127.767,51.360 127.769,54.471 129.666 M252.344 218.750 L 252.344 232.031 248.828 232.031 L 245.313 232.031 245.313 221.824 C 245.313 216.104,245.678 210.933,246.144 210.063 C 246.796 208.844,251.188 205.486,252.148 205.472 C 252.256 205.470,252.344 211.445,252.344 218.750 M61.850 286.409 C 51.976 291.329,51.563 293.063,51.563 329.509 L 51.563 359.849 53.554 363.846 C 60.434 377.652,80.325 377.615,87.722 363.783 C 90.168 359.210,90.451 300.051,88.050 295.228 C 83.159 285.407,71.641 281.530,61.850 286.409 M149.219 285.619 C 145.681 287.149,141.710 290.982,139.580 294.922 C 136.927 299.829,136.946 358.782,139.602 363.746 C 146.634 376.886,165.317 377.741,173.026 365.276 L 175.391 361.453 175.615 330.531 C 175.860 296.741,175.763 295.852,171.245 290.483 C 166.716 285.100,155.926 282.718,149.219 285.619 M234.734 286.224 C 224.555 290.964,224.112 292.861,224.385 330.531 L 224.609 361.453 226.974 365.276 C 234.683 377.741,253.366 376.886,260.398 363.746 C 263.054 358.782,263.073 299.829,260.420 294.922 C 255.227 285.316,244.491 281.681,234.734 286.224 M321.484 285.796 C 317.729 287.560,313.865 291.383,311.950 295.228 C 309.549 300.051,309.832 359.210,312.278 363.783 C 318.552 375.515,334.075 377.761,343.292 368.270 C 348.472 362.936,348.521 362.542,348.271 328.062 L 348.047 297.140 345.682 293.317 C 340.852 285.508,329.564 281.999,321.484 285.796 M75.321 299.279 L 77.344 301.682 77.344 329.417 L 77.344 357.151 75.060 359.435 C 72.623 361.873,70.473 362.275,67.722 360.810 C 64.111 358.887,64.113 358.905,64.087 329.066 L 64.063 300.710 65.980 298.793 C 68.804 295.969,72.707 296.172,75.321 299.279 M161.364 298.793 L 163.281 300.710 163.281 329.299 L 163.281 357.887 161.214 359.803 C 158.583 362.241,155.396 362.253,152.583 359.834 L 150.391 357.949 150.167 329.849 L 149.944 301.749 151.995 299.312 C 154.637 296.172,158.527 295.956,161.364 298.793 M248.005 299.312 L 250.056 301.749 249.833 329.849 L 249.609 357.949 247.417 359.834 C 244.604 362.253,241.417 362.241,238.786 359.803 L 236.719 357.887 236.719 329.299 L 236.719 300.710 238.636 298.793 C 241.473 295.956,245.363 296.172,248.005 299.312 M334.020 298.793 L 335.938 300.710 335.913 329.066 C 335.887 358.905,335.889 358.887,332.278 360.810 C 329.527 362.275,327.377 361.873,324.940 359.435 L 322.656 357.151 322.656 329.417 L 322.656 301.682 324.679 299.279 C 327.293 296.172,331.196 295.969,334.020 298.793 " stroke="none" fill="#fdf6ff" fill-rule="evenodd"></path></g></svg>
